!!!COM:	Pierre de la Rue
**kern	**kern
*part2	*part1
*staff2	*staff1
*clefG2	*clefG2
*k[]	*k[]
*M2/1	*M2/1
=1-	=1-
1d	0r
1e	.
=2	=2
1d	1r
1B	1g
=3	=3
2c	1a
2c	.
1B	1g
=4	=4
2c	1e
[2e	.
4e]	2f
4d	.
2d	2f
=5	=5
1e	1e
1r	2f
.	[2a
=6	=6
1e	4a]
.	4g
.	2g
2.f	1a
4d	.
=7	=7
4e	1r
4f	.
[2g	.
2g]	1a
2f	.
=8	=8
2.g	2.b
4e	4g
4f	4a
4e	4b
4d	[2cc
4c	.
=9	=9
1d	2cc]
.	2b
1c	2.cc
.	4a
=10	=10
1r	4b
.	4a
.	4g
.	4f
2r	1g
2c	.
=11	=11
2.d	1f
4B	.
4c	1r
4d	.
2e	.
=12	=12
2e	2r
[2d	2f
4d]	2.g
4B	.
2c	.
.	4e
=13	=13
1d	4f
.	4g
.	2a
2r	2a
2B	[2g
=14	=14
2c	4g]
.	4e
2d	2f
[1e	1g
=15	=15
2e]	2r
2c	2e
2d	2f
2e	2g
=16	=16
[1f	[1a
2f]	2a]
2d	2f
=17	=17
2e	2g
2f	2a
2.g	[1b
4f	.
=18	=18
2d	2b]
2e	2g
4d	2a
4c	.
2B	2b
=19	=19
4A	2.cc
4B	.
4c	.
4d	4b
2e	2g
[2d	2a
=20	=20
2d]	4g
.	4f
2c	2e
2d	4d
.	4e
4c	4f
4B	4g
=21	=21
4c	2a
4B	.
4A	[2g
4G	.
1A	2g]
.	2f
=22	=22
[1G	[1g
1G]	1g]
=23	=23
0r	0r
==	==
*-	*-
